shader_type canvas_item;

uniform float progress = 0.5;
uniform float freq = 2.5;
uniform float amp = 0.1;
uniform float speed = 2.0;

un

void vertex() {
	// Called for every vertex the material is visible on.
}

//void light() {
	// Called for every pixel for every light affecting the CanvasItem.
	// Uncomment to replace the default light processing function with this one.
//}
